!!!OTL@@FUR: I fantaz son l&acirc;z in uere
!!!OTL@IT: I giovanotti sono andati alla guerra
!!!OTL@EN: The young men have gone to war
**kern
*clefG2
*k[f#c#]
*D:
*M4/4
*MM60
*>[A,A]
*>A
4.f#
16g
=1
*>B
4a
4f#
4g
4a
=2
4b
4g
4r
8.a
16b
=3
4cc#
4a
4b
4g
=4
2f#
4r
8.f#
16g
=5
4a
4f#
4g
4a
=6
4cc#
4b
4.g
8b
=7
8b
8a
8g
8f#
4a
8.g
16g
=8
2f#
4r
==:|!
*-
!!!ARE: Friuli
!!!ENC: Kelly Leistikow
!!!END: 2002/03/07
!!!ref: @{OTL@@FUR}/@{OTL@EN}
